X:1
T:Etude op. 21 no 22
T:Etude op. 21 no 22
T:Joachim Andersen
C:Joachim Andersen
L:1/8
Q:1/4=110
M:4/4
K:Bb
V:1 treble nm="Flûte" snm="Fl."
V:1
"^Presto"!p!!<(! (G/^G/A/B/ =B/c/^c/d/!<)!!>(! e/d/c/=c/ B/_B/A/_A/)!>)! | %1
!p! (=G/g/)(b/g/) (=A/g/)(b/g/) (B/g/)(b/g/) (c/g/)(^c/g/) | %2
!p!!<(! (d/e/=e/f/ ^f/g/^g/a/!<)!!>(! b/a/g/=g/ f/=f/e/_e/)!>)! | %3
!p! (d/a/)(c'/a/) (=e/a/)(c'/a/) (^f/a/)(c'/a/) (g/c'/)(a/c'/) | %4
!p!!<(! (b/a/_a/g/ _g/f/=e/_e/!<)!!>(! d/e/=e/f/ g/=g/a/=a/)!>)! | %5
!p! (b/B/)(G/B/) (a/B/)(G/B/) (g/B/)(G/B/) (f/G/)(=e/G/) | %6
!p!!<(! (a/^g/=g/^f/ =f/=e/_e/d/!<)!!>(! ^c/d/e/=e/ f/^f/g/^g/)!>)! | %7
!p! (a/^c/)(A/c/) (g/c/)(A/c/) (^f/=c/)(A/c/) (e/A/)(d/A/) | %8
!p!!<(! (G/^G/A/B/ =B/c/^c/d/!<)!!>(! e/d/c/=c/ B/_B/A/_A/)!>)! | %9
!p! (G/g/)(b/g/) (A/g/)(b/g/) (B/g/)(b/g/) (c/g/)(^c/g/) | %10
!p!!<(! (d/e/=e/f/ ^f/g/^g/a/!<)!!>(! b/a/g/=g/ f/=f/e/_e/)!>)! | %11
!p! (d/a/)(c'/a/) (=e/a/)(c'/a/) (^f/a/)(c'/a/) (g/c'/)(a/c'/) | %12
 (b/=b/c'/^c'/ d'/e'/=e'/f'/ ^f'/g'/)!p!(_B/G/) (=c/A/)(d/B/) | %13
!<(! (a/^g/a/b/ =b/c'/^c'/d'/!<)! f'/e'/)!p!(=c/A/) (d/_B/)(e/c/) | %14
!<(! (^f/g/^g/a/) (e/=e/=f/^f/) (c/^c/d/_e/)!<)! (^F/G/^G/A/) | %15
 (G/^G/"_cresc."A/B/ =B/c/^c/d/ e/d/_B/A/) (=G/g/)(b/g/) |: %16
!mf!!>(! (a/^g/=g/^f/ =f/=e/_e/d/!>)!!p!!<(! ^c/d/e/=e/ f/^f/g/^g/)!<)! | %17
!mf! (a/^f/)(d/f/) (b/g/)(^c/g/) (a/c/)(A/c/) (g/c/)(A/c/) | %18
!>(! (^f/g/^g/a/ b/=b/c'/^c'/!>)!!p! d'/c'/=c'/b/ _b/a/g/=g/) | %19
!mf! (^f/d/)(A/d/) ((g/=e/))(^c/e/) (^g/e/)(c/e/) (a/e/)(c/e/) | %20
!f!!>(! (a/^g/=g/^f/ =f/=e/_e/d/!>)! ^c/d/)!p!(^F/A/) (A/d/)(d/^f/) | %21
!f!!>(! (b/a/_a/g/ _g/f/=e/_e/!>)! d/e/)!p!(G/B/) (B/d/)(d/=g/) | %22
!f! (c'/=b/_b/a/ ^g/a/)(c/d/) (b/a/_a/=g/ ^f/g/)(B/d/) |1 %23
!>(! (a/^g/=g/^f/ =f/=e/_e/d/!>)! ^c/d/)!p!!<(!(^F/A/ d/^f/a/d'/)!<)! :|2 %24
!>(! (a/^g/=g/^f/ =f/=e/_e/d/ ^c/d/)(e/d/!>)! =c/A/^F/D/) || %25
!p!!<(! (G/^G/A/B/ =B/c/^c/d/!<)!!>(! e/d/c/=c/ B/_B/A/_A/)!>)! | %26
!p! (=G/g/)(b/g/) (=A/g/)(b/g/) (B/g/)(b/g/) (c/g/)(^c/g/) | %27
!p!!<(! (d/e/=e/f/ ^f/g/^g/a/!<)!!>(! b/a/g/=g/ f/=f/e/_e/)!>)! | %28
!p! (d/a/)(c'/a/) (=e/a/)(c'/a/) (^f/a/)(c'/a/) (g/c'/)(a/c'/) | %29
!p!!<(! (b/a/_a/g/ _g/f/=e/_e/!<)!!>(! d/e/=e/f/ g/=g/a/=a/)!>)! | %30
!p! (b/B/)(G/B/) (a/B/)(G/B/) (g/B/)(G/B/) (f/G/)(=e/G/) | %31
!p!!<(! (a/^g/=g/^f/ =f/=e/_e/d/!<)!!>(! ^c/d/e/=e/ f/^f/g/^g/)!>)! | %32
!p! (a/^c/)(A/c/) (=g/c/)(A/c/) (^f/=c/)(A/c/) (_e/A/)(d/A/) | %33
!p!!<(! (G/^G/A/B/ =B/c/^c/d/!<)!!>(! e/d/c/=c/ B/_B/A/_A/)!>)! | %34
!p! (=G/g/)(b/g/) (=A/g/)(b/g/) (B/g/)(b/g/) (c/g/)(^c/g/) | %35
!p!!<(! (d/e/=e/f/ ^f/g/^g/a/!<)!!>(! b/a/g/=g/ f/=f/e/_e/)!>)! | %36
!p!!<(! (d/a/)(c'/a/) (=e/a/)(c'/a/) (^f/a/)(c'/a/) (g/c'/)(a/c'/)!<)! | %37
!mf! (b/=b/c'/^c'/ d'/e'/=e'/f'/ ^f'/g'/)!f!(_B/G/) (c/A/)(d/B/) | %38
!mf! (a/^g/a/b/ =b/c'/^c'/d'/ f'/e'/)!f!(c/A/) (d/B/)(e/c/) | %39
!f! (^f/g/^g/a/)!>(! (e/=e/=f/^f/) (c/^c/d/_e/) (^F/G/^G/A/)!>)! | %40
!p!!<(! (G/^G/A/B/ =B/c/^c/d/ e/=e/f/^f/ g/^g/a/_b/!<)! | %41
!mf! =b/c'/^c'/d'/)!p! (_a/d/)(=B/d/) (^f/d/)(B/d/) (g/d/)(B/d/) | %42
!mf! (=c'/^c'/d'/e'/)!p! (_a/e/)(c/e/) (^f/e/)(c/e/) (g/e/)(c/e/) | %43
!mf! (^f/g/^g/a/)!p! (e/c/)(^F/c/) (^c/=c/)(F/c/) (d/c/)(F/c/) | %44
!p!!<(! (G/^G/A/B/ =B/c/^c/d/ e/=e/f/^f/ g/^g/a/_b/!<)! | %45
!mf! =b/c'/^c'/d'/)!p! (_a/d/)(=B/d/) (^f/d/)(B/d/) (g/d/)(B/d/) | %46
!mf! (c'/^c'/d'/e'/)!p! (_a/e/)(c/e/) (^f/e/)(c/e/) (g/e/)(c/e/) | %47
!mf! (^f/g/^g/a/)!p! (e/c/)(^F/c/) (^c/=c/)(F/c/) (d/c/)(F/c/) | %48
!f!!>(! (d/^c/=c/=B/ _B/A/_A/G/)!>)!!p! (^F/c/)(e/c/) (F/c/)(d/c/) | %49
!f!!>(! (d/^c/=c/=B/ _B/A/_A/G/)!>)!!p! (^F/c/)(e/c/) (F/c/)(d/c/) | %50
!p!!<(! (G/B/)(d/B/) (^F/c/)(d/c/) (G/B/)(d/B/) (F/c/)(d/c/)!<)! | %51
 (G/B/)"_cresc."(d/B/) (^F/c/)(d/c/) (G/B/)(d/B/) (F/c/)(d/c/) | %52
 (G/B/)!<(!(A/c/) (B/d/)(c/e/) (d/g/)(^f/a/) (g/b/)(d'/g'/)!<)! |!f! G6 z2 |] %54

